X: 1
T:The Coachman's Whip
M:C|
L:1/4
C:Vincent Broderick
R:reel
D:Dessie Wilkinson, Gerry O'Connor & Eithne N\'i Uallachain
Z:id:hn-reel-753
K:G
d2BG DGGD|~E2BE dEBc|d2BG EG~G2|FGAc BG~G2|
d2BG DGGD|~E2BE dEBE|DEGA Bdef|1 gdcA BG~G2:|2 gdcA BAGE||
|:D3E ~G3B|d2BG DGGD|~E2BE dEBc|dBAG EAGE|
D2DE ~G3B|d2BG DG~G2|FGAB cdef|1 gdcA BAGE:|2 gdcA BG~G2||
